svgs/wrc.svg

<svg xmlns="http://www.w3.org/2000/svg" viewBox="0 0 192 192"><path d="M20.988 139.596c-1.717-3.298-3.54-9.462-4.051-13.698-1.363-11.292-1.193-71.345.214-75.779 1.553-4.894 3.193-4.527 4.984 1.116 1.177 3.708 1.498 11.677 1.498 37.216 0 36.014.023 36.142 6.559 36.142 4.594 0 5.832-4.291 5.832-20.216 0-19.529 2.19-33.262 6.131-38.45 4.232-5.571 5.698-5.519 9.617.34 3.968 5.932 6.175 20.118 6.175 39.69 0 16.764.672 18.636 6.682 18.636 5.631 0 6.663-5.294 6.663-34.187 0-23.69.125-25.126 2.919-33.569l2.92-8.82 16.845-.952c9.264-.524 18.293-.097 20.063.949 4.601 2.72 7.772 13.771 7.772 27.091 0 25.141-2.674 29.558-19.054 31.47-11.619 1.357-12.89 2.046-13.2 7.148-.188 3.105.236 6.801.943 8.212.707 1.412 7.84 2.587 15.851 2.612 12.598.04 14.647.71 15.165 4.959.329 2.702.16 7.094-.375 9.76-.834 4.154-3.319 4.847-17.389 4.847H87.336l-2.78-9.807c-2.984-10.53-3.454-19.781-1.64-32.319 1.952-13.504 5.203-16.432 18.237-16.432 9.366 0 12.094-.943 13.032-4.505.947-3.594.947-5.415 0-9.009-.97-3.684-4.169-4.504-17.56-4.504-11.464 0-16.716 1.08-17.517 3.603-.701 2.208-1.144 12.998-1.144 27.86 0 35.561-3.326 46.625-14.012 46.603-9.635-.02-13.63-12.289-13.63-41.858 0-16.084-1.616-22.842-4.72-19.738-1.655 1.655-1.953 4.461-1.953 18.415 0 30.469-4.131 43.201-14.012 43.181-3.842-.009-6.48-1.84-8.649-6.007Zm109.175 1.317c-4.008-6.85-5.493-18.978-5.493-44.848 0-26.263 1.507-38.182 5.688-44.994 4.223-6.88 43.078-6.707 44.897.201.908 3.447.978 6.133.253 9.76-.866 4.333-3.793 5.224-21.868 6.653-11.477.907-20.975 1.92-21.106 2.252-.131.331-.238 12.089-.238 26.128s.107 25.797.238 26.128c.131.332 9.629 1.345 21.106 2.252 18.075 1.429 21.002 2.319 21.868 6.653.725 3.627.655 6.312-.253 9.76-1.797 6.823-41.105 6.871-45.092.055Z"/></svg>

<svg
    xmlns="http://www.w3.org/2000/svg"
    viewBox="0 0 192 192"
    id="vector">
    <g id="group">
        <path
            id="path_6"
            d="M 20.988 139.596 C 19.271 136.298 17.448 130.134 16.937 125.898 C 15.574 114.606 15.744 54.553 17.151 50.119 C 18.704 45.225 20.344 45.592 22.135 51.235 C 23.312 54.943 23.633 62.912 23.633 88.451 C 23.633 124.465 23.656 124.593 30.192 124.593 C 34.786 124.593 36.024 120.302 36.024 104.377 C 36.024 84.848 38.214 71.115 42.155 65.927 C 46.387 60.356 47.853 60.408 51.772 66.267 C 55.74 72.199 57.947 86.385 57.947 105.957 C 57.947 122.721 58.619 124.593 64.629 124.593 C 70.26 124.593 71.292 119.299 71.292 90.406 C 71.292 66.716 71.417 65.28 74.211 56.837 L 77.131 48.017 L 93.976 47.065 C 103.24 46.541 112.269 46.968 114.039 48.014 C 118.64 50.734 121.811 61.785 121.811 75.105 C 121.811 100.246 119.137 104.663 102.757 106.575 C 91.138 107.932 89.867 108.621 89.557 113.723 C 89.369 116.828 89.793 120.524 90.5 121.935 C 91.207 123.347 98.34 124.522 106.351 124.547 C 118.949 124.587 120.998 125.257 121.516 129.506 C 121.845 132.208 121.676 136.6 121.141 139.266 C 120.307 143.42 117.822 144.113 103.752 144.113 L 87.336 144.113 L 84.556 134.306 C 81.572 123.776 81.102 114.525 82.916 101.987 C 84.868 88.483 88.119 85.555 101.153 85.555 C 110.519 85.555 113.247 84.612 114.185 81.05 C 115.132 77.456 115.132 75.635 114.185 72.041 C 113.215 68.357 110.016 67.537 96.625 67.537 C 85.161 67.537 79.909 68.617 79.108 71.14 C 78.407 73.348 77.964 84.138 77.964 99 C 77.964 134.561 74.638 145.625 63.952 145.603 C 54.317 145.583 50.322 133.314 50.322 103.745 C 50.322 87.661 48.706 80.903 45.602 84.007 C 43.947 85.662 43.649 88.468 43.649 102.422 C 43.649 132.891 39.518 145.623 29.637 145.603 C 25.795 145.594 23.157 143.763 20.988 139.596 Z M 130.163 140.913 C 126.155 134.063 124.67 121.935 124.67 96.065 C 124.67 69.802 126.177 57.883 130.358 51.071 C 134.581 44.191 173.436 44.364 175.255 51.272 C 176.163 54.719 176.233 57.405 175.508 61.032 C 174.642 65.365 171.715 66.256 153.64 67.685 C 142.163 68.592 132.665 69.605 132.534 69.937 C 132.403 70.268 132.296 82.026 132.296 96.065 C 132.296 110.104 132.403 121.862 132.534 122.193 C 132.665 122.525 142.163 123.538 153.64 124.445 C 171.715 125.874 174.642 126.764 175.508 131.098 C 176.233 134.725 176.163 137.41 175.255 140.858 C 173.458 147.681 134.15 147.729 130.163 140.913 Z"
            fill="#000000"
            stroke-width="12"/>
    </g>
</svg>
